resources/devices/human_singer_1.svg

<?xml version="1.0" encoding="UTF-8" standalone="no"?>
<svg
   xml:space="preserve"
   width="40"
   height="100"
   version="1.1"
   id="svg7"
   sodipodi:docname="human_singer_1.svg"
   inkscape:version="1.3.2 (091e20e, 2023-11-25)"
   xmlns:inkscape="http://www.inkscape.org/namespaces/inkscape"
   xmlns:sodipodi="http://sodipodi.sourceforge.net/DTD/sodipodi-0.dtd"
   xmlns="http://www.w3.org/2000/svg"
   xmlns:svg="http://www.w3.org/2000/svg"><defs
     id="defs7" /><sodipodi:namedview
     id="namedview7"
     pagecolor="#ffffff"
     bordercolor="#000000"
     borderopacity="0.25"
     inkscape:showpageshadow="2"
     inkscape:pageopacity="0.0"
     inkscape:pagecheckerboard="0"
     inkscape:deskcolor="#d1d1d1"
     inkscape:current-layer="svg7" /><g
     id="g36"
     transform="translate(-17.118384,0.7863045)"
     style="display:inline"><path
       id="path4"
       style="display:inline;fill:none;stroke:#000000;stroke-width:3.00001;stroke-linecap:round;stroke-linejoin:round;stroke-miterlimit:4.7;stroke-dasharray:none;stroke-opacity:1"
       d="m 26.781592,61.050538 0.631808,-16.222246 6.090921,-10.893225 4.552303,-0.820735 4.832975,0.42913 3.223786,15.553751 6.465919,8.972671 m -0.574107,34.963732 -5.118575,-1.93475 -6.227571,-31.706645 -2.232002,-1.200122 -2.23662,0.731755 -4.064572,33.185582 -6.620089,1.414481 M 38.425605,58.120056 38.066136,33.081488"
       sodipodi:nodetypes="cccccccccccccccc" /><path
       id="path19"
       style="fill:none;stroke:#000000;stroke-width:0.8;stroke-linecap:round;stroke-linejoin:round;stroke-miterlimit:4.7"
       d="m 53.341634,18.674238 c 3.408983,5.645331 -1.119443,10.013356 -1.119443,10.013356 v 0 m -1.039606,-9.621111 c 2.812525,4.920666 -0.979521,8.761767 -0.979521,8.761767 v 0 m -1.158091,-8.226745 c 2.08384,4.035436 -0.8086,7.232882 -0.8086,7.232882 v 0" /><path
       d="m 45.510893,19.162439 c 1.226536,4.315007 -1.289558,8.802936 -5.62945,10.041188 -4.330316,1.240811 -8.851112,-1.251522 -10.079957,-5.557121 -1.229703,-4.308476 1.47859,-8.381205 5.817753,-9.618469 4.339163,-1.237265 8.661952,0.825926 9.891654,5.134402"
       style="display:inline;fill:#ffffff;stroke:#000000;stroke-width:2.00001;stroke-linecap:round;stroke-linejoin:round;stroke-miterlimit:4.7;stroke-dasharray:none;stroke-opacity:1"
       id="path7"
       sodipodi:nodetypes="cccsc" /><path
       id="path8"
       style="stroke:#000000;stroke-width:0.8;stroke-linecap:round;stroke-linejoin:round;stroke-miterlimit:4.7"
       d="m 39.473038,24.334448 a 1.2742122,2.2300677 0 0 1 -1.274212,2.230068 1.2742122,2.2300677 0 0 1 -1.274212,-2.230068 1.2742122,2.2300677 0 0 1 1.274212,-2.230068 1.2742122,2.2300677 0 0 1 1.274212,2.230068 z" /><path
       id="path35"
       style="fill:#000000;stroke:none;stroke-width:0.8;stroke-linecap:round;stroke-linejoin:round;stroke-miterlimit:4.7"
       d="m 30.385996,3.4035063 c -0.732097,0.00206 -1.454039,0.089628 -2.123047,0.2675781 -8.871396,2.726672 -8.217711,11.8880496 -4.603515,19.1132816 1.091452,2.18195 -4.429688,5.828125 -4.429688,5.828125 0,0 10.779303,4.538317 7.808594,-5.419922 C 24.150318,13.51151 26.588716,3.1487244 35.495371,9.2628813 a 1.2819877,1.3111237 0 0 0 -0.341797,0.7089844 l -5.634765,-2.0507813 0.185546,5.9414066 5.730469,-2.855469 a 1.2819877,1.3111237 0 0 0 0.984375,0.472656 1.2819877,1.3111237 0 0 0 1.105469,-0.646484 l 5.556641,2.021484 -0.240235,-5.5390623 -5.171875,2.578125 a 1.2819877,1.3111237 0 0 0 -0.964844,-1 C 37.892658,5.4761323 34.019978,3.3933052 30.385996,3.4035063 Z" /><path
       style="fill:#000000;stroke:none;stroke-width:0.8;stroke-linecap:round;stroke-linejoin:round;stroke-miterlimit:4.7;stroke-opacity:1"
       d="M 38.16033,33.125917 25.314082,87.150884 52.841755,86.044571 Z"
       id="path36" /></g></svg>

<?xml version="1.0" encoding="UTF-8" standalone="no"?>
<svg
   xml:space="preserve"
   width="100"
   height="100"
   version="1.1"
   id="svg7"
   sodipodi:docname="human_singer_1.svg"
   inkscape:version="1.3.2 (091e20e, 2023-11-25)"
   xmlns:inkscape="http://www.inkscape.org/namespaces/inkscape"
   xmlns:sodipodi="http://sodipodi.sourceforge.net/DTD/sodipodi-0.dtd"
   xmlns="http://www.w3.org/2000/svg"
   xmlns:svg="http://www.w3.org/2000/svg"><defs
     id="defs7" /><sodipodi:namedview
     id="namedview7"
     pagecolor="#ffffff"
     bordercolor="#000000"
     borderopacity="0.25"
     inkscape:showpageshadow="2"
     inkscape:pageopacity="0.0"
     inkscape:pagecheckerboard="0"
     inkscape:deskcolor="#d1d1d1"
     inkscape:current-layer="g36" /><g
     id="g36"
     transform="translate(12.881582,0.78594682)"
     style="display:inline"><path
       id="path4"
       style="display:inline;fill:none;stroke:#000000;stroke-width:3.00001;stroke-linecap:round;stroke-linejoin:round;stroke-miterlimit:4.7;stroke-dasharray:none;stroke-opacity:1"
       d="m 26.781592,61.050538 0.631808,-16.222246 6.090921,-10.893225 4.552303,-0.820735 4.832975,0.42913 3.223786,15.553751 6.465919,8.972671 m -0.574107,34.963732 -5.118575,-1.93475 -6.227571,-31.706645 -2.232002,-1.200122 -2.23662,0.731755 -4.064572,33.185582 -6.620089,1.414481 M 38.425605,58.120056 38.066136,33.081488"
       sodipodi:nodetypes="cccccccccccccccc" /><path
       id="path19"
       style="fill:none;stroke:#000000;stroke-width:0.8;stroke-linecap:round;stroke-linejoin:round;stroke-miterlimit:4.7"
       d="m 53.341634,18.674238 c 3.408983,5.645331 -1.119443,10.013356 -1.119443,10.013356 v 0 m -1.039606,-9.621111 c 2.812525,4.920666 -0.979521,8.761767 -0.979521,8.761767 v 0 m -1.158091,-8.226745 c 2.08384,4.035436 -0.8086,7.232882 -0.8086,7.232882 v 0" /><path
       d="m 45.510893,19.162439 c 1.226536,4.315007 -1.289558,8.802936 -5.62945,10.041188 -4.330316,1.240811 -8.851112,-1.251522 -10.079957,-5.557121 -1.229703,-4.308476 1.47859,-8.381205 5.817753,-9.618469 4.339163,-1.237265 8.661952,0.825926 9.891654,5.134402"
       style="display:inline;fill:#ffffff;stroke:#000000;stroke-width:2.00001;stroke-linecap:round;stroke-linejoin:round;stroke-miterlimit:4.7;stroke-dasharray:none;stroke-opacity:1"
       id="path7"
       sodipodi:nodetypes="cccsc" /><path
       id="path8"
       style="stroke:#000000;stroke-width:0.8;stroke-linecap:round;stroke-linejoin:round;stroke-miterlimit:4.7"
       d="m 39.473038,24.334448 a 1.2742122,2.2300677 0 0 1 -1.274212,2.230068 1.2742122,2.2300677 0 0 1 -1.274212,-2.230068 1.2742122,2.2300677 0 0 1 1.274212,-2.230068 1.2742122,2.2300677 0 0 1 1.274212,2.230068 z" /><path
       id="path35"
       style="stroke:none;stroke-width:0.8;stroke-linecap:round;stroke-linejoin:round;stroke-miterlimit:4.7;fill:#000000"
       d="M 30.385996 3.4035063 C 29.653899 3.4055614 28.931957 3.4931347 28.262949 3.6710844 C 19.391553 6.3977564 20.045238 15.559134 23.659434 22.784366 C 24.750886 24.966316 19.229746 28.612491 19.229746 28.612491 C 19.229746 28.612491 30.009049 33.150808 27.03834 23.192569 C 24.150318 13.51151 26.588716 3.1487244 35.495371 9.2628813 A 1.2819877 1.3111237 0 0 0 35.153574 9.9718657 L 29.518809 7.9210844 L 29.704355 13.862491 L 35.434824 11.007022 A 1.2819877 1.3111237 0 0 0 36.419199 11.479678 A 1.2819877 1.3111237 0 0 0 37.524668 10.833194 L 43.081309 12.854678 L 42.841074 7.3156157 L 37.669199 9.8937407 A 1.2819877 1.3111237 0 0 0 36.704355 8.8937407 C 37.892658 5.4761323 34.019978 3.3933052 30.385996 3.4035063 z " /><path
       style="fill:#000000;stroke:none;stroke-width:0.8;stroke-linecap:round;stroke-linejoin:round;stroke-miterlimit:4.7;stroke-opacity:1"
       d="M 38.16033,33.125917 25.314082,87.150884 52.841755,86.044571 Z"
       id="path36" /></g></svg>
